**kern	**kern
*staff2	*staff1
*clefF4	*clefG2
*k[f#]	*k[f#]
*M6/8	*M6/8
*G:	*G:
*clefG2	*
4r	16F#LL
.	16A
.	16d
.	16A
8ddd	16F#
.	16AJJ
=143	=143
4bb	16GLL
.	16B
.	16d
.	16B
8bb	16G
.	16BJJ
4aa	16cLL
.	16d
.	16f#
.	16d
8aa	16c
.	16dJJ
=144	=144
4gg	16BLL
.	16d
.	16g
.	16d
8r	16B
.	16GJJ
*clefF4	*
8r	16F#LL
.	16A
16C#LL	16d
16D	16A
16C#	16F#
16DJJ	16AJJ
=145	=145
8BBL	16GLL
.	16B
16C#L	16d
16D	16B
16C#	16G
16DJJ	16BJJ
8AAL	16F#LL
.	16c
16C#L	16d
16D	16c
16C#	16F#
16DJJ	16cJJ
=146	=146
4GG	16GLL
.	16B
.	16d
.	16B
8r	16G
.	16BJJ
*clefG2	*
8r	16F#LL
.	16A
16ccc#LL	16d
16ddd	16A
16ccc#	16F#
16dddJJ	16AJJ
=147	=147
8bbL	16GLL
.	16B
16ccc#L	16d
16ddd	16B
16ccc#	16G
16dddJJ	16BJJ
8aaL	16cLL
.	16d
16ccc#L	16f#
16ddd	16d
16ccc#	16c
16dddJJ	16dJJ
=148	=148
4gg#	16BLL
.	16d
.	16f
.	16d
*clefF4	*
8r	16B
.	16dJJ
4r	16BLL
.	16d
.	16f
.	16d
8DD 8D	16B
.	16dJJ
=149	=149
4GGG# 4GG#	16BLL
.	16d
.	16e
.	16d
8GGG# 8GG#	16B
.	16dJJ
4DD 4D	16BLL
.	16e
.	16g#
.	16e
8DD 8D	16B
.	16eJJ
=150	=150
4.CC 4.C	16ALL
.	16e
.	16a
.	16e
.	16A
.	16eJJ
4.CC# 4.C#	16eLL
.	16g
.	16b-
.	16g
.	16e
.	16gJJ
=151	=151
4.DD 4.D	16dLL
.	16g
.	16b
.	16g
.	16d
.	16gJJ
4.DD	16dLL
.	16f#
.	16cc
.	16f#
.	16d
.	16f#JJ
=152	=152
16GGLL	4d 4g 4b
16D	.
16G	.
16D	.
16GG	8r
16DJJ	.
16BBLL	4r
16D	.
16G	.
16D	.
*-	*-
